Gruvbox-Plus-Dark/actions/16/edit-find-replace.svg

<svg xmlns="http://www.w3.org/2000/svg" width="16" height="16" viewBox="0 0 16 16">
 <defs>
  <style id="current-color-scheme" type="text/css">
   .ColorScheme-Text { color:#ebdbb2; } .ColorScheme-Highlight { color:#458588; }
  </style>
 </defs>
 <path style="fill:currentColor" class="ColorScheme-Text" d="M 6.5 1.0039062 C 3.4711 1.0039062 1 3.4785062 1 6.5039062 C 1 7.5661063 1.28612 8.5670563 1.8125 9.4101562 L 3.28125 7.9394531 C 3.08793 7.5034331 3 7.0129531 3 6.5019531 C 3 4.5567531 4.5526 3.0019531 6.5 3.0019531 C 7.01218 3.0019531 7.46979 3.1205231 7.90625 3.3144531 L 8.65625 2.5644531 L 8.75 2.4726562 L 9.375 1.8164062 C 8.535 1.2984062 7.5558594 1.0039062 6.5058594 1.0039062 L 6.5 1.0039062 z M 11.611328 2.0019531 C 11.429282 2.0019531 11.248782 2.0734937 11.107422 2.2148438 L 9.7109375 3.6191406 L 12.382812 6.2929688 L 13.787109 4.8964844 C 14.069819 4.6137744 14.069819 4.1674856 13.787109 3.8847656 L 12.117188 2.2148438 C 11.975832 2.0734937 11.793374 2.0019531 11.611328 2.0019531 z M 8.75 4.5800781 L 2 11.330078 L 2 14.001953 L 4.671875 14.001953 L 11.423828 7.2519531 L 8.75 4.5800781 z M 11.125 9.6914062 L 9.6875 11.097656 L 13.3125 14.722656 C 14.27084 15.660696 15.67765 14.222646 14.71875 13.285156 L 11.125 9.6914062 z"/>
</svg>

<svg width="16" height="16" version="1.1" viewBox="0 0 16 16" xmlns="http://www.w3.org/2000/svg">
  <defs>
    <style type="text/css">.ColorScheme-Text { color:#ebdbb2; } .ColorScheme-Highlight { color:#458588; }</style>
  </defs>
  <path class="ColorScheme-Text" d="m6.5 1.004c-3.029 0-5.5 2.475-5.5 5.5 0 1.062 0.2861 2.063 0.8125 2.906l1.469-1.471c-0.1933-0.436-0.2812-0.9265-0.2812-1.438 0-1.945 1.553-3.5 3.5-3.5 0.5122 0 0.9698 0.1186 1.406 0.3125l0.75-0.75 0.09375-0.0918 0.625-0.6562c-0.84-0.518-1.819-0.8125-2.869-0.8125h-0.005859zm5.111 0.998c-0.182 0-0.3625 0.07154-0.5039 0.2129l-1.396 1.404 2.672 2.674 1.404-1.396c0.2827-0.2827 0.2827-0.729 0-1.012l-1.67-1.67c-0.1414-0.1414-0.3238-0.2129-0.5059-0.2129zm-2.861 2.578-6.75 6.75v2.672h2.672l6.752-6.75-2.674-2.672zm2.375 5.111-1.438 1.406 3.625 3.625c0.9583 0.938 2.365-0.5 1.406-1.438l-3.594-3.594z" fill="currentColor"/>
</svg>
